X: 11095
T: SUGAR RIVER JIG
C: Bob McQuillen 14 Mar 01
B: Bob's Note Book 11 #95
R: jig
Z: 2019 John Chambers <jc:trillian.mit.edu>
M: 6/8
L: 1/8
K: D	% and Bm
e \
| fgf fed | dcB A2G | FAd dcd | egf eag |\
| fgf edc | dcB A2G | FAd cBc | edd d2 :|
|: A \
| Bcd cde | def e2g | fgf fed | Bcd c2A |\
| Bcd cde | def eag | fed cfe | dBB B2 :|
%%begintext align
%% Up in Newport, H.H. is
%% where the Orzechowski family lives (You have already met
%% them in these tune books.) The Sugar River runs right
%% past their house, and Jane, Francis, Russell, Sophie, and
%% Neil are all members of the Sugar River Band. They have
%% a wonderful time together, making good music for Contra
%% Dances. You should go hear them the next time you are
%% up their way. Bring your
%% dancing shoes, too - you'll
%% need them!
%%endtext

%%sep 1 1 500

%%sep 1 1 500

